packages/ffe-icons/icons/filled/sm/view_stream.svg

<svg xmlns="http://www.w3.org/2000/svg" height="20" viewBox="0 -960 960 960" width="20"><path d="M229.309-260.001q-26.527 0-45.417-19.241-18.891-19.24-18.891-45.067v-65.385q0-26.526 18.891-45.417 18.89-18.89 45.417-18.89h502.382q26.527 0 45.417 18.89 18.891 18.891 18.891 45.417v65.385q0 25.827-18.891 45.067-18.89 19.241-45.417 19.241H229.309Zm0-245.998q-26.527 0-45.417-19.241-18.891-19.24-18.891-45.066v-65.385q0-26.527 18.891-45.417 18.89-18.891 45.417-18.891h502.382q26.527 0 45.417 18.891 18.891 18.89 18.891 45.417v65.385q0 25.826-18.891 45.066-18.89 19.241-45.417 19.241H229.309Z"/></svg>

<svg xmlns="http://www.w3.org/2000/svg" height="20" viewBox="0 -960 960 960" width="20"><path d="M229.31-260q-26.53 0-45.42-19.24T165-324.31v-65.38q0-26.53 18.89-45.42T229.31-454h502.38q26.53 0 45.42 18.89T796-389.69v65.38q0 25.83-18.89 45.07Q758.22-260 731.69-260H229.31Zm0-246q-26.53 0-45.42-19.24T165-570.31v-65.38q0-26.53 18.89-45.42T229.31-700h502.38q26.53 0 45.42 18.89T796-635.69v65.38q0 25.83-18.89 45.07Q758.22-506 731.69-506H229.31Z"/></svg>
